X:1
T:Im Himmelreich
T:Max Bruch
T:Im Himmelreich
T:Nr. 1 aus Fünf Lieder, Op. 90
T:CPDL - Creative Commons Attribution Non Commercial 3.0
T:CPDL - Creative Commons Attribution Non Commercial 3.0
T:CPDL - Creative Commons Attribution Non Commercial 3.0
T:CPDL - Creative Commons Attribution Non Commercial 3.0
C:Max Bruch
Z:CPDL - Creative Commons Attribution Non Commercial 3.0
%%score [ 1 2 3 4 ]
L:1/8
Q:1/4=80
M:4/4
K:G
V:1 treble nm="S"
V:2 treble nm="A"
V:3 treble-8 nm="T"
V:4 bass nm="B"
V:1
"^Andante"!p! (B2 | B2 B2 B2 B2) | B4 F2 B2 | B2 G2 G2 A2 | B4 F2 |"^cresc." B2 | B3 A B2 c2 | %7
w: 1.~Im|Him- mel- reich ein|Haus steht, da-|hin ein gold- ner|Weg geht,|die|Säu- len die sind|
w: 2.~Viel|En- gel gehn im|Haus still, ihr|Sang nur Got- tes|Lob will,|Saal-|wäch- ter sind die|
 !>!A2 G2 A2 B2 | B3 A B2 c2 | A2 G2 A2 B2 | B3!>(! A G2 F2!>)! |!p! (E4 B4) | !fermata!E6 :| %13
w: Mar- mel- stein, da|leg- te un- ser|Gott hin- ein die|e- del- sten Ge-|stei- *|ne.|
w: Se- ra- phim, am|Ein- gang stehn zwei|Che- ru- bim, die|hü- ten fromm die|Pfor- *|ten.|
!pp! (B2 | B2 B2 B2 B2) | A3 B B2 F2 |"^sempre"!p! B2 B2 ^G2 A2 | B4 B4 |"^cresc." (=c6 e2 | %19
w: 3.~In|die- ses Haus geht|Nie- mand ein, der|nicht von al- len|Sün- den|rei- *|
w: ||||||
 c2 B2 A2 B2 | A4) B2 z2 |!p! (A6 c2 | A2 G2 ^F2[Q:1/4=60]"^rit.      -      -      -" G2 | %23
w: |* ne,|rei- *||
w: ||||
 F4) !fermata!E2 |] %24
w: * ne.|
w: |
V:2
!p! (G2 | G2 ^D2 E2 G2) | F4 F2 F2 | B,2 E2 E3 E | (E2 ^D2) D2 |"^cresc." F2 | E3 A ^G2 A2 | %7
w: |||||||
 !>!F2 =G2 (DC) (B,D) | =F3 E ^G2 A2 | ^F2 E2 (FE) (D=G) | G3!>(! F E2 ^D2!>)! |!p! (E6 ^D2) | %12
w: |||||
 !fermata!B,6 :|!pp! (B,2 | G2 ^D2 E2 G2) | A3 F F2 ^D2 |"^sempre"!p! E2 F2 E2 E2 | (E2 ^G2) F4 | %18
w: |3.~In|die- ses Haus geht|Nie- mand ein, der|nicht von al- len|Sün- * den|
"^cresc." (A4 E4- | E4 F2 =G2- | G2 F2) G2 z2 |!p! (=F4 E4-) | E8- | (E2 ^D2) !fermata!E2 |] %24
w: rei- *||* * ne,|rei- *||* * ne.|
V:3
!p! (G2 | G2 A2 B2 e2) | (e3 =d) d2 ^d2 | e2 B2 c2 E2 | (F3 B) B2 |"^cresc." ^d2 | e3 e =d2 e2 | %7
w: 1.~Im|Him- mel- reich ein|Haus * steht, da-|hin ein gold- ner|Weg * geht,|die|Säu- len die sind|
w: 2.~Viel|En- gel gahn im|Haus * still, ihr|Sang nur Got- tes|Lob * will,|Saal-|wäch- ter sind die|
 !>!d2 d2 f2 g2 | d3 c e2 e2 | (dc) B2 c2 B2 | d3!>(! c B2 A2!>)! |!p! (G2 E2 FG A2) | %12
w: Mar- mel- stein, da|leg- te un- ser|Gott * hin- ein die|e- del- sten Ge-|stei- * * * *|
w: Se- ra- phim, am|Ein- gang stehn zwei|Che- * ru- bim, die|hü- ten fromm die|Pfor- * * * *|
 !fermata!G6 :|!pp! (B2 | G2 A2 B2 e2) | e3 ^d d2 f2 |"^sempre"!p! (Be) (e^d) ^c2 c2 | %17
w: ne.|3.~In|die- ses Haus geht|Nie- mand ein, der|nicht * von * al- len|
w: ten.|||||
 (B2 e4) ^d2 |"^cresc." (e4 =c4-) | (c6 =d2-) | d4 d2 z2 |!p! (d4 c4-) | (c6 B2- | %23
w: Sün- * den|rei- *||* ne,|rei- *||
w: ||||||
 B3 A) !fermata!G2 |] %24
w: * * ne.|
w: |
V:4
!p! (E,2 | E,2 F,2 G,2 E,2) | B,4 B,2 (B,A,) | G,2 (E,D,) C,2 C,2 | B,,4 B,,2 |"^cresc." B,2 | %6
w: ||||||
 C3 C B,2 A,2 | !>!C2 B,2 A,2 G,2 | ^G,3 A, (E,D,) C,2 | D,2 E,2 D,2 G,,2 | %10
w: ||||
 G,,3!>(! A,, B,,2 B,,2!>)! |!p! (C,4 B,,4) | !fermata!E,6 :|!pp! (B,,2 | E,2 F,2 G,2 E,2) | %15
w: |||3.~In|die- ses Haus geht|
 C3 B, B,2 (B,A,) |"^sempre"!p! ^G,2 B,2 (^CB,) A,2 | (^G,2 E,2) B,4 |"^cresc." (A,8- | A,6 =G,2 | %20
w: Nie- mand ein, der _|nicht von al- * len|Sün- * den|rei-||
 D,4) G,2 z2 |!p! (D,4 A,,4- | A,,6 G,,2 | B,,4) !fermata!E,2 |] %24
w: * ne,|rei- *||* ne.|

